assets/flags-color/Bw.svg

<svg xmlns="http://www.w3.org/2000/svg" viewBox="0 0 512 512"><path fill="#82afff" d="M0 0h512v512H0z"/><path fill="#464655" d="M0 215.58h512v80.84H0z"/><g fill="#f5f5f5"><path d="M0 188.63h512v26.947H0zM0 296.42h512v26.947H0z"/></g></svg>

<svg xmlns="http://www.w3.org/2000/svg" x="0" y="0" enable-background="new 0 0 512 512" version="1.1" viewBox="0 0 512 512" xml:space="preserve"><path fill="#82AFFF" d="M0 0H512V512H0z"/><path fill="#464655" d="M0 215.58H512V296.42H0z"/><g fill="#F5F5F5"><path d="M0 188.63H512V215.577H0z"/><path d="M0 296.42H512V323.367H0z"/></g></svg>
